packages/web-icons/svgs/bl_1.svg

<svg viewBox="0 0 59 49" xmlns="http://www.w3.org/2000/svg" class="ridi_icon"><path d="M47.4 37.8V26.6c6.2-1.2 10.7-6.6 10.7-12.9C58.1 6.5 52.1.6 45 .6s-13.1 6-13.1 13.1c0 6.3 4.5 11.7 10.7 12.9v11.1L36.9 32l-4.2 4.2L45 48.5l12.3-12.3-3.9-4.4-6 6zm-9.5-24.2c0-3.9 3.2-7.2 7.2-7.2s7.2 3.2 7.2 7.2-3.3 7.2-7.3 7.2-7.1-3.1-7.1-7.2zm-21.5 8.6V11.1l5.7 5.7 4.2-4.2L14 .5 1.7 12.8 5.6 17l6-6v11.1C5.4 23.3.9 28.7.9 35c0 7.2 6 13.1 13.1 13.1s13.1-6 13.1-13.1c0-6.2-4.5-11.6-10.7-12.8zM14 42.3c-3.9 0-7.2-3.2-7.2-7.2S10 28 14 28s7.2 3.2 7.2 7.2-3.3 7.1-7.2 7.1z"/></svg>

<?xml version="1.0" encoding="UTF-8"?>
<svg width="59px" height="49px" viewBox="0 0 59 49" version="1.1" xmlns="http://www.w3.org/2000/svg">
  <!-- Generator: Sketch 41.2 (35397) - http://www.bohemiancoding.com/sketch -->
  <title>bl_1</title>
  <desc>Created with Sketch.</desc>
  <defs></defs>
  <g id="Page-1" stroke="none" stroke-width="1" fill="none" fill-rule="evenodd">
    <g id="bl_1" fill="#000000">
      <g id="Layer_1">
        <g id="Group">
          <path d="M47.4,37.8 L47.4,26.6 C53.6,25.4 58.1,20 58.1,13.7 C58.1,6.5 52.1,0.6 45,0.6 C37.9,0.6 31.9,6.6 31.9,13.7 C31.9,20 36.4,25.4 42.6,26.6 L42.6,37.7 L36.9,32 L32.7,36.2 L45,48.5 L57.3,36.2 L53.4,31.8 L47.4,37.8 Z M37.9,13.6 C37.9,9.7 41.1,6.4 45.1,6.4 C49.1,6.4 52.3,9.6 52.3,13.6 C52.3,17.6 49,20.8 45,20.8 C41,20.8 37.9,17.7 37.9,13.6 Z" id="Shape"></path>
          <path d="M16.4,22.2 L16.4,11.1 L22.1,16.8 L26.3,12.6 L14,0.5 L1.7,12.8 L5.6,17 L11.6,11 L11.6,22.1 C5.4,23.3 0.9,28.7 0.9,35 C0.9,42.2 6.9,48.1 14,48.1 C21.1,48.1 27.1,42.1 27.1,35 C27.1,28.8 22.6,23.4 16.4,22.2 Z M14,42.3 C10.1,42.3 6.8,39.1 6.8,35.1 C6.8,31.1 10,28 14,28 C18,28 21.2,31.2 21.2,35.2 C21.2,39.2 17.9,42.3 14,42.3 Z" id="Shape"></path>
        </g>
      </g>
    </g>
  </g>
</svg>
